X: 22
T: Missa Princesse d'amourettes &mdash; Credo
C: Gaspar van Weerbeke
%%abc-version 2.0
%%abcx-abcm2ps-target-version 5.9.1 (29 Sep 2008)
%%abc-creator hum2abc beta
%%abcx-conversion-date 2022/03/06 13:05:58
%%abc-copyright Copyright 2014, Pavanello, Agnese
%%abc-edited-by Mair-Gruber, Roland
%%humdrum-veritas 1812495778
%%humdrum-veritas-data 1280318555
%%linebreak <none>
%%barnumbers 0
L: 1/4
M: 3/2
N: Derived from Gas0103c-Missa_Princesse_damourettes-Credo.krn
%%staves [1 2 3 4]
V: 1 clef=treble
V: 2 clef=treble-8
V: 3 clef=treble-8
V: 4 clef=bass
K: C
[V:1] z6 | 
[V:2] G2G3/A//B//c2 | 
[V:3] z6 | 
[V:4] z2C,2C,3/D,//E,// | 
[V:1] z6 | 
[V:2] zcccdc | 
[V:3] z6 | 
[V:4] F,2zF,F,F, | 
[V:1] D2D3/E//F//G2 | 
[V:2] B2A2zB | 
[V:3] z6 | 
[V:4] G,2D,>C, B,,/A,,/G,, | 
[V:1] zGGF/ED//C//B, | 
[V:2] BBGA2G | 
[V:3] z6 | 
[V:4] z6 | 
[V:1] A,D2^CD3/E/ | 
[V:2] AFE2Dd | 
[V:3] z6 | 
[V:4] z6 | 
[V:1] F/G/A2B>GG- | 
[V:2] d3/c//B//c>BGB | 
[V:3] z6 | 
[V:4] z6 | 
[V:1] G^FG2z2 | 
[V:2] A2G>A B/c/d- | 
[V:3] z6 | 
[V:4] z2zG,G,3/F,//E,// | 
[V:1] z6 | 
[V:2] de2c2B | 
[V:3] z6 | 
[V:4] F,E,/D,/C,E,D,2 | 
[V:1] E>EEEDE | 
[V:2] c2zcBc | 
[V:3] G6- | 
[V:4] C,4zC, | 
[V:1] DG2ED2 | 
[V:2] dcBcdg- | 
[V:3] G6 | 
[V:4] B,,C,G,,C,2B,, | 
[V:1] CG2ABB | 
[V:2] g/f/e/d/ged2 | 
[V:3] G3c2B | 
[V:4] C,>D,E,C,G,2 | 
[V:1] E>F G/A/BAc- | 
[V:2] z2zdfe | 
[V:3] c2>B2c2 | 
[V:4] C,>D, E,/F,/G,F,A, | 
[V:1] cB2A2^G | 
[V:2] dg>fe>dc/B/ | 
[V:3] d2>c2B2 | 
[V:4] B,G,2A,E,2 | 
[V:1] A3G/F/EA- | 
[V:2] cfed^c2 | 
[V:3] A6- | 
[V:4] z6 | 
[V:1] A/G/F/E/DG2^F | 
[V:2] d3c/B/A2 | 
[V:3] A6 | 
[V:4] D,4D,2 | 
[V:1] G4z2 | 
[V:2] G2G3A | 
[V:3] z6 | 
[V:4] z2E,2C,2- | 
[V:1] z6 | 
[V:2] c/B/A/G/AG2^F | 
[V:3] z6 | 
[V:4] C,D,C,B,,A,,2 | 
[V:1] D2DEG/F/E/D/ | 
[V:2] G2z2z2 | 
[V:3] B2G3A | 
[V:4] G,,2z2z2 | 
[V:1] ED2^CDF | 
[V:2] z6 | 
[V:3] GFE2D2 | 
[V:4] z2A,,2B,,D,- | 
[V:1] E2D2zG | 
[V:2] z2zA2G | 
[V:3] A>AAd2c | 
[V:4] D,C,D,>F,E,2 | 
[V:1] FGABAd- | 
[V:2] ABAge/f/d | 
[V:3] d2zdcB | 
[V:4] D,G,F,G,A,/F,/G, | 
[V:1] d/c/BA/G/G2^F | 
[V:2] f2zd>cA | 
[V:3] Ad2BA2 | 
[V:4] D,>E,F,G,D,2 | 
[V:1] G2z2z2 | 
[V:2] B>cd2zc | 
[V:3] G2z2z2 | 
[V:4] G,,2zD,2A,, | 
[V:1] z6 | 
[V:2] dBA>B c/d/e | 
[V:3] z6 | 
[V:4] B,,>C,D,2zC, | 
[V:1] z6 | 
[V:2] fdc2zc | 
[V:3] z6 | 
[V:4] D,B,,A,,>B,, C,/D,/E, | 
[V:1] z6 | 
[V:2] dfeefd- | 
[V:3] z6 | 
[V:4] F,D,C,C,D,F, | 
[V:1] z6 | 
[V:2] dcBA>GF- | 
[V:3] z6 | 
[V:4] E,E,D,2A,,D,- | 
[V:1] z2z2C2 | 
[V:2] F/E//D//EDG2^F | 
[V:3] z6 | 
[V:4] D,/C,//B,,//C,D,B,,A,,2 | 
[V:1] B,2B,>CD2 | 
[V:2] G2zGBB | 
[V:3] G6- | 
[V:4] G,,2z2G,,2 | 
[V:1] E2zGAc- | 
[V:2] c>BGc>de | 
[V:3] G4c2 | 
[V:4] C,4C,2 | 
[V:1] c/B/A/G/AGzc- | 
[V:2] A2zgef | 
[V:3] c6 | 
[V:4] F,2F,G,A,2 | 
[V:1] cBB>AcG | 
[V:2] g2zge3/f/ | 
[V:3] d4c2- | 
[V:4] G,4C,2 | 
[V:1] E>FGAG2 | 
[V:2] g>f e/d/ce2 | 
[V:3] c2BAB2 | 
[V:4] C,>D,E,F,E,2 | 
[V:1] CDEFE2 | 
[V:2] efec>de | 
[V:3] A6- | 
[V:4] A,,D,C,A,,A,,2 | 
[V:1] C>DEFEA- | 
[V:2] fe2a>gf | 
[V:3] A6 | 
[V:4] zA,,C,D,A,,2 | 
[V:1] A/G/FED2^C | 
[V:2] edcde2 | 
[V:3] A4A2 | 
[V:4] z6 | 
[V:1] D2zG2E | 
[V:2] dg>fe/d<^cB/ | 
[V:3] B2G2G2 | 
[V:4] z2z2E,2 | 
[V:1] F>GABc2 | 
[V:2] d2z2z2 | 
[V:3] A2>G2A2 | 
[V:4] D,>E,F,G,2^F, | 
[V:1] BG>FE/D/C2 | 
[V:2] z2B2A3/B/ | 
[V:3] B2G2AF | 
[V:4] G,2z2z2 | 
[V:1] EFG>EF2 | 
[V:2] cd2^cd2 | 
[V:3] EDE2D2 | 
[V:4] z6 | 
[V:1] D2DG2A- | 
[V:2] B>cde2c- | 
[V:3] z6 | 
[V:4] G,2F,E,C,F,- | 
[V:1] A/B/cAd>cB | 
[V:2] c/d/ef2d3/e/ | 
[V:3] z6 | 
[V:4] F,/E,/C,D,2G,2 | 
[V:1] AGcBA2 | 
[V:2] fgfg2^f | 
[V:3] z2z2A2 | 
[V:4] D,G,A,G,D,2 | 
[V:1] D>B,CB,A,2 | 
[V:2] g2z2c2 | 
[V:3] B>GAG2^F | 
[V:4] z6 | 
[V:1] z2z2C2 | 
[V:2] Bde>d c/B/A | 
[V:3] G4z2 | 
[V:4] z6 | 
[V:1] B,DE>D C/B,/A, | 
[V:2] GFEGAF | 
[V:3] z6 | 
[V:4] z6 | 
[V:1] G,G2^FG2- | 
[V:2] G2A2GB- | 
[V:3] z6 | 
[V:4] z2D,2E,G,- | 
[V:1] G2z2G2 | 
[V:2] B/c/e2d2^c | 
[V:3] z6 | 
[V:4] G,/F,/E,/D,/C,D,E,2 | 
[V:1] F>GA2zD | 
[V:2] d>ef2g2 | 
[V:3] A4BG- | 
[V:4] D,3/C,//B,,//A,,D,G,,2 | 
[V:1] ED/GF/DEF | 
[V:2] z2z2zd | 
[V:3] G/A/BABA2 | 
[V:4] C,B,,C,/D,/B,,C,D, | 
[V:1] G2G2F3/G/ | 
[V:2] B>GBcd3/c/ | 
[V:3] G4A2- | 
[V:4] E,4D,3/E,/ | 
[V:1] ADFGA2 | 
[V:2] AG/d2c/ d/B/A | 
[V:3] ABAG2^F | 
[V:4] F,G,D,E,D,2 | 
[V:1] B2zGcB | 
[V:2] zGcBAd- | 
[V:3] G4z2 | 
[V:4] z2C,E,F,G, | 
[V:1] Ad>cB/A/Gc | 
[V:2] d/c/B/A/Ggef | 
[V:3] z6 | 
[V:4] D,2G,2CA, | 
[V:1] BA/GF/ED3/C/ | 
[V:2] gf/ed<cB/B/A/ | 
[V:3] z6 | 
[V:4] G,z/C,D,/E,/F,/G,2 | 
[V:1] E6 ||  
[V:2] c6 ||  
[V:3] G6 ||  
[V:4] C,6 ||  
[V:1] [M:2/2]z4 | 
[V:2] [M:2/2]z4 | 
[V:3] [M:2/2]z4 | 
[V:4] [M:2/2]C,4- | 
[V:1] z4 | 
[V:2] z4 | 
[V:3] z4 | 
[V:4] C,2C,2 | 
[V:1] G4 | 
[V:2] z4 | 
[V:3] z4 | 
[V:4] C,3B,,/A,,/ | 
[V:1] G2G2 | 
[V:2] z4 | 
[V:3] z4 | 
[V:4] G,,2C,2 | 
[V:1] G3F/E/ | 
[V:2] G4 | 
[V:3] z4 | 
[V:4] B,,2G,,2 | 
[V:1] D2E2 | 
[V:2] G2G2 | 
[V:3] z4 | 
[V:4] z2C,2 | 
[V:1] D4 | 
[V:2] G3F/E/ | 
[V:3] z4 | 
[V:4] B,,3C, | 
[V:1] F2GE | 
[V:2] D2E2 | 
[V:3] z4 | 
[V:4] D,2C,2 | 
[V:1] F>GA2 | 
[V:2] D2F2 | 
[V:3] z4 | 
[V:4] D,B,,A,,2 | 
[V:1] D2zD- | 
[V:2] G2F2- | 
[V:3] z4 | 
[V:4] G,,2z2 | 
[V:1] DB,C2 | 
[V:2] FGA2 | 
[V:3] z4 | 
[V:4] z4 | 
[V:1] D2G,2 | 
[V:2] D2zG- | 
[V:3] z4 | 
[V:4] z4 | 
[V:1] zG,A,2 | 
[V:2] GEF2 | 
[V:3] z4 | 
[V:4] z4 | 
[V:1] B,2CE- | 
[V:2] G2C2 | 
[V:3] z4 | 
[V:4] z2zG,- | 
[V:1] E/D/EF/E/D/C/ | 
[V:2] zGA2 | 
[V:3] z4 | 
[V:4] G,F,/E,/D,2 | 
[V:1] D2C2 | 
[V:2] B2ce- | 
[V:3] z4 | 
[V:4] G,2E,C,- | 
[V:1] zGA2 | 
[V:2] e/d/ef/e/d/c/ | 
[V:3] z4 | 
[V:4] C,/B,,/C,A,,2 | 
[V:1] B2cA | 
[V:2] d2c2 | 
[V:3] z4 | 
[V:4] G,,G,A,F, | 
[V:1] B2Ac | 
[V:2] zGA2 | 
[V:3] zzz2 | 
[V:4] G,2zF, | 
[V:1] BGA2 | 
[V:2] B2cA | 
[V:3] z4 | 
[V:4] G,2F,2 | 
[V:1] D>E F/G/E | 
[V:2] B2Ac | 
[V:3] z4 | 
[V:4] G,2D,C, | 
[V:1] DG2^F | 
[V:2] BGA2 | 
[V:3] z4 | 
[V:4] G,E,D,2 | 
[V:1] G2z2 | 
[V:2] G3F | 
[V:3] z4 | 
[V:4] G,,>A,, B,,/C,/A,, | 
[V:1] z4 | 
[V:2] GED2 | 
[V:3] z4 | 
[V:4] G,,C,2B,, | 
[V:1] G2GF | 
[V:2] E>FGA | 
[V:3] z4 | 
[V:4] C,>D,E,D, | 
[V:1] GED2 | 
[V:2] Gc2B | 
[V:3] z4 | 
[V:4] E,C,G,2 | 
[V:1] E>FGA | 
[V:2] c4 | 
[V:3] z4 | 
[V:4] C,>D,E,F, | 
[V:1] Gc2B | 
[V:2] zcd2 | 
[V:3] z4 | 
[V:4] G,A,G,2 | 
[V:1] c2zG | 
[V:2] cAB2 | 
[V:3] z4 | 
[V:4] zA,G,E, | 
[V:1] A2GE | 
[V:2] A2zG | 
[V:3] z4 | 
[V:4] F,2E,2 | 
[V:1] F2E2 | 
[V:2] A2GE | 
[V:3] z4 | 
[V:4] zD,E,C, | 
[V:1] zD2C | 
[V:2] F2E2 | 
[V:3] z2z2 | 
[V:4] D,2zA,, | 
[V:1] DB,A,2 | 
[V:2] DG2F | 
[V:3] z4 | 
[V:4] B,,G,,D,2 | 
[V:1] z2G,3/A,/ | 
[V:2] Gd2e | 
[V:3] z4 | 
[V:4] G,,>A,,B,,C, | 
[V:1] B,CDE | 
[V:2] dcB/A/G- | 
[V:3] z4 | 
[V:4] G,,A,,B,,C, | 
[V:1] DGFB | 
[V:2] G/A/B/c/dB | 
[V:3] z4 | 
[V:4] G,,2zG, | 
[V:1] AG2^F | 
[V:2] cGA2 | 
[V:3] z4 | 
[V:4] F,G,D,2 | 
[V:1] G2z2 | 
[V:2] G4 | 
[V:3] z4 | 
[V:4] G,,>A,,B,,C,- | 
[V:1] G2FG- | 
[V:2] z4 | 
[V:3] z4 | 
[V:4] C,/D,/E,D,E,- | 
[V:1] GF/E/DG | 
[V:2] z4 | 
[V:3] z4 | 
[V:4] E,D,/C,/B,,C, | 
[V:1] ABG3/F/ | 
[V:2] z2c2 | 
[V:3] z4 | 
[V:4] A,,G,,z2 | 
[V:1] DEC2 | 
[V:2] Bc2B/A/ | 
[V:3] z4 | 
[V:4] z4 | 
[V:1] z4 | 
[V:2] Gcde- | 
[V:3] z4 | 
[V:4] C,2B,,C,- | 
[V:1] z4 | 
[V:2] ed/c/g2 | 
[V:3] z4 | 
[V:4] C,B,,/A,,/G,,C, | 
[V:1] zGAB- | 
[V:2] fed2 | 
[V:3] z4 | 
[V:4] D,E,F,G,- | 
[V:1] BA/G<cB/ | 
[V:2] ze2c | 
[V:3] z4 | 
[V:4] G,/F,/E,/D,/C,F,- | 
[V:1] A/G/G2^F | 
[V:2] dBA2 | 
[V:3] z4 | 
[V:4] F,G,D,2 | 
[V:1] G2z2 | 
[V:2] zGAB- | 
[V:3] z4 | 
[V:4] G,,C,2D,- | 
[V:1] z4 | 
[V:2] BA/G<cB/ | 
[V:3] z4 | 
[V:4] D,E,2C, | 
[V:1] z4 | 
[V:2] A/G/G2^F | 
[V:3] z4 | 
[V:4] D,B,,A,,2 | 
[V:1] zD3 | 
[V:2] G3F | 
[V:3] z4 | 
[V:4] G,,4 | 
[V:1] F2E2 | 
[V:2] D2C2 | 
[V:3] z4 | 
[V:4] z4 | 
[V:1] D3E | 
[V:2] zG3 | 
[V:3] z4 | 
[V:4] z4 | 
[V:1] DG2^F | 
[V:2] B2A2 | 
[V:3] z4 | 
[V:4] z4 | 
[V:1] G2z2 | 
[V:2] G3A | 
[V:3] z4 | 
[V:4] zC,3 | 
[V:1] z2F2 | 
[V:2] Gc2B | 
[V:3] z4 | 
[V:4] E,2D,2 | 
[V:1] E3F | 
[V:2] c4 | 
[V:3] z4 | 
[V:4] C,3D, | 
[V:1] G2G2 | 
[V:2] z2B2 | 
[V:3] z4 | 
[V:4] E,2E,2 | 
[V:1] A3G | 
[V:2] A3B | 
[V:3] z4 | 
[V:4] F,3G, | 
[V:1] E2c2 | 
[V:2] c2c2 | 
[V:3] z4 | 
[V:4] A,2A,2 | 
[V:1] B2A2 | 
[V:2] d3c | 
[V:3] z4 | 
[V:4] G,2D,2 | 
[V:1] A/G/F/E/D2 | 
[V:2] A2f2 | 
[V:3] z4 | 
[V:4] z4 | 
[V:1] C2zF- | 
[V:2] e2d2 | 
[V:3] z4 | 
[V:4] A,,2D,2 | 
[V:1] FE/D/E2 | 
[V:2] d/c/B/A/G2 | 
[V:3] z4 | 
[V:4] B,,2C,2 | 
[V:1] D2G,2 | 
[V:2] F2zB- | 
[V:3] z4 | 
[V:4] D,2E,G,- | 
[V:1] z2C2 | 
[V:2] BA/G/A2 | 
[V:3] z4 | 
[V:4] G,F,/E,/F,2 | 
[V:1] DE>FG- | 
[V:2] G2C2- | 
[V:3] z4 | 
[V:4] zG,>F,E,- | 
[V:1] GF/E/DE | 
[V:2] C2G2- | 
[V:3] z4 | 
[V:4] E,D,/C,/B,,C, | 
[V:1] DC/B,/A,2 | 
[V:2] G2^F2 | 
[V:3] z4 | 
[V:4] B,,G,,D,2 | 
[V:1] G,4 ||  
[V:2] G4 ||  
[V:3] z4 ||  
[V:4] G,,4 ||  
[V:1] [M:2/2]z4 | 
[V:2] [M:2/2]D4 | 
[V:3] [M:2/2]z4 | 
[V:4] [M:2/2]z4 | 
[V:1] D4 | 
[V:2] D3D | 
[V:3] z4 | 
[V:4] z4 | 
[V:1] D3D | 
[V:2] G2G2 | 
[V:3] z4 | 
[V:4] G,,4 | 
[V:1] G2G2 | 
[V:2] B2B2 | 
[V:3] z4 | 
[V:4] G,,3G,, | 
[V:1] G3A | 
[V:2] c>de2 | 
[V:3] G4 | 
[V:4] C,2C,2 | 
[V:1] B2B2 | 
[V:2] d3e | 
[V:3] G3G | 
[V:4] G,,2zG, | 
[V:1] A4 | 
[V:2] f4 | 
[V:3] c2c2 | 
[V:4] F,3G, | 
[V:1] A2c2 | 
[V:2] e2f2 | 
[V:3] c2c2 | 
[V:4] A,2A,2 | 
[V:1] B2AB- | 
[V:2] g>fd2 | 
[V:3] d4- | 
[V:4] G,2F,G,- | 
[V:1] BA/G/FG | 
[V:2] z4 | 
[V:3] d4 | 
[V:4] G,F,/E,/D,E, | 
[V:1] A2F2 | 
[V:2] z4 | 
[V:3] c4- | 
[V:4] F,2F,2 | 
[V:1] E>FGA | 
[V:2] g2gf | 
[V:3] c4 | 
[V:4] C,>D,E,F, | 
[V:1] B/A/G/F/G2 | 
[V:2] d2d2 | 
[V:3] B4 | 
[V:4] G,4 | 
[V:1] A2z2 | 
[V:2] z2c2 | 
[V:3] A4- | 
[V:4] D,2F,2 | 
[V:1] c2Ac- | 
[V:2] Ac>BA/G/ | 
[V:3] A4- | 
[V:4] z4 | 
[V:1] c/B/A/G/FA- | 
[V:2] F2zf | 
[V:3] A4- | 
[V:4] z2D,2 | 
[V:1] AG2^F | 
[V:2] edc2 | 
[V:3] A4 | 
[V:4] C,B,,A,,2 | 
[V:1] G4 | 
[V:2] d4 | 
[V:3] B4 | 
[V:4] G,,4 | 
[V:1] z4 | 
[V:2] d2eg- | 
[V:3] G4- | 
[V:4] B,,2C,3/D,/ | 
[V:1] G2G2 | 
[V:2] g/f/e/d/c2 | 
[V:3] G4 | 
[V:4] E,2E,2 | 
[V:1] F3G | 
[V:2] d4 | 
[V:3] A4- | 
[V:4] D,3E, | 
[V:1] A>GEF | 
[V:2] c>ded | 
[V:3] A4 | 
[V:4] F,>D,C,D, | 
[V:1] G>FDE | 
[V:2] B>cdc | 
[V:3] G4 | 
[V:4] E,>D,B,,C, | 
[V:1] F2DE- | 
[V:2] A2B2 | 
[V:3] F2G2 | 
[V:4] D,2G,,2 | 
[V:1] E/D/^C/B,/C2 | 
[V:2] A4 | 
[V:3] E4 | 
[V:4] A,,4 | 
[V:1] D4 | 
[V:2] z4 | 
[V:3] D4- | 
[V:4] A,2F,D, | 
[V:1] z4 | 
[V:2] A2FD | 
[V:3] D4- | 
[V:4] F,>G,A,2 | 
[V:1] z4 | 
[V:2] FGA_B- | 
[V:3] D4- | 
[V:4] _B,2A,D,- | 
[V:1] z4 | 
[V:2] BA2G | 
[V:3] D4 | 
[V:4] D,C,_B,,2 | 
[V:1] zc2_B/A/ | 
[V:2] Ae2d/c/ | 
[V:3] z4 | 
[V:4] A,,4 | 
[V:1] _B2AB- | 
[V:2] d2cd- | 
[V:3] z4 | 
[V:4] z4 | 
[V:1] B/A/G/F/G2 | 
[V:2] d/c/_B/A/_B2 | 
[V:3] z4 | 
[V:4] z4 | 
[V:1] A4 | 
[V:2] Af2e/d/ | 
[V:3] z4 | 
[V:4] A,4 | 
[V:1] z4 | 
[V:2] e2de- | 
[V:3] z4 | 
[V:4] G,2F,G,- | 
[V:1] z4 | 
[V:2] e/d/d2^c | 
[V:3] z4 | 
[V:4] G,/F,/D,E,2 | 
[V:1] F4 | 
[V:2] d4 | 
[V:3] A4- | 
[V:4] D,4- | 
[V:1] F2F3/G/ | 
[V:2] z4 | 
[V:3] A4 | 
[V:4] D,4 | 
[V:1] A>Bc2 | 
[V:2] z4 | 
[V:3] A2A2 | 
[V:4] F,4 | 
[V:1] B2A2 | 
[V:2] z4 | 
[V:3] d4- | 
[V:4] zG,2F, | 
[V:1] B2AB- | 
[V:2] g2f2 | 
[V:3] d2d2 | 
[V:4] G,2D,2 | 
[V:1] BA2G- | 
[V:2] e2d2 | 
[V:3] c2B2 | 
[V:4] z4 | 
[V:1] GF/E/F2 | 
[V:2] z2d2 | 
[V:3] A4 | 
[V:4] D,3E, | 
[V:1] zABA | 
[V:2] cAGA | 
[V:3] A2d2- | 
[V:4] F,2G,D, | 
[V:1] B2G2- | 
[V:2] GB>cd- | 
[V:3] d2B2 | 
[V:4] G,2G,,2 | 
[V:1] G2^F2 | 
[V:2] dc/B/A2 | 
[V:3] A4 | 
[V:4] D,4 | 
[V:1] G4 | 
[V:2] B4 | 
[V:3] G4 | 
[V:4] G,,4 | 
[V:1] [M:3/2]z6 | 
[V:2] [M:3/2]G2F2D2 | 
[V:3] [M:3/2]z6 | 
[V:4] [M:3/2]G,,2A,,2B,,2 | 
[V:1] G,2>A,2B,2 | 
[V:2] E2>F2G2 | 
[V:3] z6 | 
[V:4] C,4B,,2 | 
[V:1] C2D2C2 | 
[V:2] A2D2E2 | 
[V:3] z6 | 
[V:4] A,,2B,,2C,2 | 
[V:1] A,2>B,2C2 | 
[V:2] F2>G2A2 | 
[V:3] z6 | 
[V:4] D,4C,2 | 
[V:1] D2E2D2 | 
[V:2] B2E2F2 | 
[V:3] z6 | 
[V:4] B,,2C,2D,2 | 
[V:1] B,2>C2D2 | 
[V:2] G2>A2B2 | 
[V:3] z6 | 
[V:4] E,4D,2 | 
[V:1] E2F2E2 | 
[V:2] c2F2G2 | 
[V:3] z6 | 
[V:4] C,2D,2E,2 | 
[V:1] C2>D2E2 | 
[V:2] A2>B2c2 | 
[V:3] z6 | 
[V:4] F,4E,2 | 
[V:1] F2G2F2 | 
[V:2] d2G2A2 | 
[V:3] z6 | 
[V:4] D,2E,2F,2 | 
[V:1] D2>E2F2 | 
[V:2] B2>c2d2 | 
[V:3] z6 | 
[V:4] G,2>F,2D,2 | 
[V:1] G2>F2D2 | 
[V:2] G2>A2B2 | 
[V:3] z6 | 
[V:4] E,2>D,2B,,2 | 
[V:1] E2>D2B,2- | 
[V:2] E2>F2G2 | 
[V:3] z6 | 
[V:4] C,2>B,,2G,,2 | 
[V:1] B,2A,4 | 
[V:2] DG2E^F2 | 
[V:3] z6 | 
[V:4] B,,2C,2D,2 | 
[V:1] z6 | 
[V:2] G6 | 
[V:3] z6 | 
[V:4] G,,6 | 
[V:1] [M:3/2]z4 | 
[V:2] [M:3/2]B3c/d/ | 
[V:3] [M:3/2]z4 | 
[V:4] [M:3/2]G,4 | 
[V:1] z4 | 
[V:2] ed2B | 
[V:3] z4 | 
[V:4] G,2G,2- | 
[V:1] z4 | 
[V:2] c/B/A/G/A2 | 
[V:3] z4 | 
[V:4] G,E,F,2 | 
[V:1] z4 | 
[V:2] GE2F | 
[V:3] z4 | 
[V:4] G,3A, | 
[V:1] z4 | 
[V:2] D2CE- | 
[V:3] z4 | 
[V:4] B,2C2- | 
[V:1] z4 | 
[V:2] EF>EF | 
[V:3] z4 | 
[V:4] CB,A,2 | 
[V:1] z4 | 
[V:2] G>FED | 
[V:3] z4 | 
[V:4] B,G,2F, | 
[V:1] z4 | 
[V:2] G4 | 
[V:3] z4 | 
[V:4] E,D,C,2 | 
[V:1] z4 | 
[V:2] G3C | 
[V:3] z4 | 
[V:4] B,,G,,2A,, | 
[V:1] z4 | 
[V:2] GED2 | 
[V:3] z4 | 
[V:4] B,,C,D,B,, | 
[V:1] z2C2 | 
[V:2] C4 | 
[V:3] G4- | 
[V:4] C,4- | 
[V:1] E2EE | 
[V:2] c2c2 | 
[V:3] G4 | 
[V:4] C,4 | 
[V:1] G2GE- | 
[V:2] e2eg- | 
[V:3] G4- | 
[V:4] C,2C,2 | 
[V:1] ECCB,/A,/ | 
[V:2] gge2 | 
[V:3] G4 | 
[V:4] C,4- | 
[V:1] G,2z2 | 
[V:2] cc2B/A/ | 
[V:3] c4- | 
[V:4] C,4 | 
[V:1] G2E2 | 
[V:2] G2zG | 
[V:3] c4- | 
[V:4] C,2C,2 | 
[V:1] CG2G | 
[V:2] G2G2 | 
[V:3] c4 | 
[V:4] E,2E,2 | 
[V:1] F4 | 
[V:2] A2A2 | 
[V:3] d4 | 
[V:4] D,4 | 
[V:1] E2A2- | 
[V:2] A3G | 
[V:3] c4 | 
[V:4] A,,4 | 
[V:1] A2G2 | 
[V:2] E2z2 | 
[V:3] B4 | 
[V:4] E,4 | 
[V:1] FE2D- | 
[V:2] C>DEF | 
[V:3] A4- | 
[V:4] A,,>B,,C,D, | 
[V:1] D^CD3/E/ | 
[V:2] E2D2- | 
[V:3] A4- | 
[V:4] A,,2z2 | 
[V:1] FG2^F | 
[V:2] D4 | 
[V:3] A4 | 
[V:4] z4 | 
[V:1] G4 | 
[V:2] E4 | 
[V:3] z4 | 
[V:4] z4 | 
[V:1] z4 | 
[V:2] G2A2 | 
[V:3] z4 | 
[V:4] C,3D, | 
[V:1] z4 | 
[V:2] GA2G/F/ | 
[V:3] z4 | 
[V:4] E,F,D,2 | 
[V:1] z4 | 
[V:2] E2z2 | 
[V:3] z4 | 
[V:4] C,4 | 
[V:1] G2A2 | 
[V:2] c2c3/d/ | 
[V:3] z4 | 
[V:4] E,2F,2 | 
[V:1] GA2G/F/ | 
[V:2] efd2 | 
[V:3] z4 | 
[V:4] E,D,F,3/G,/ | 
[V:1] E2c2 | 
[V:2] c2e2 | 
[V:3] z4 | 
[V:4] A,2A,,2 | 
[V:1] cc2B | 
[V:2] ee2d | 
[V:3] z4 | 
[V:4] A,,C,2D, | 
[V:1] A>GE2 | 
[V:2] cd2^c | 
[V:3] z4 | 
[V:4] F,>D,A,2 | 
[V:1] D2zG- | 
[V:2] dG2B- | 
[V:3] B4 | 
[V:4] z4 | 
[V:1] GB>cd- | 
[V:2] B/c/dGg- | 
[V:3] G4- | 
[V:4] z4 | 
[V:1] dc2B | 
[V:2] gf/e/d2 | 
[V:3] G4 | 
[V:4] z4 | 
[V:1] c4 | 
[V:2] c2ze- | 
[V:3] A4- | 
[V:4] A,,2A,,3/B,,/ | 
[V:1] zA2G/F/ | 
[V:2] ef>ef | 
[V:3] A4 | 
[V:4] C,D,3 | 
[V:1] E>FG2 | 
[V:2] ge>de | 
[V:3] G4 | 
[V:4] E,C,C,3/B,,/ | 
[V:1] zA2d | 
[V:2] fd>cd | 
[V:3] F4 | 
[V:4] D,4 | 
[V:1] Gc>BA/G/ | 
[V:2] ecc3/B/ | 
[V:3] E4 | 
[V:4] z2A,,2 | 
[V:1] F>GA_B | 
[V:2] d2zD | 
[V:3] D4 | 
[V:4] A,2F,3/G,/ | 
[V:1] AG2^F | 
[V:2] FGD2 | 
[V:3] z2A2 | 
[V:4] A,_B,A,2 | 
[V:1] G2zD- | 
[V:2] d2cB | 
[V:3] _B2AG- | 
[V:4] G,>D,F,G, | 
[V:1] DDB,G, | 
[V:2] A2GB | 
[V:3] G^FG2 | 
[V:4] D,2E,G,- | 
[V:1] C2z2 | 
[V:2] Ac2B/A/ | 
[V:3] A4 | 
[V:4] G,^F,/E,/F,2 | 
[V:1] zG2F/E/ | 
[V:2] G2z2 | 
[V:3] B4 | 
[V:4] G,G,,B,,C, | 
[V:1] F/E/D/C/B,C- | 
[V:2] zd2f- | 
[V:3] A2GA- | 
[V:4] D,2G,F,- | 
[V:1] C/B,/A,/G,/A,2 | 
[V:2] f/e/cd2 | 
[V:3] A/G/F/E/^F2 | 
[V:4] F,/G,/E,D,2 | 
[V:1] zG,B,3/C/ | 
[V:2] B2zG | 
[V:3] G4- | 
[V:4] G,,4 | 
[V:1] DEDG | 
[V:2] B>cde | 
[V:3] G4 | 
[V:4] z2G,,C, | 
[V:1] FE2D/C/ | 
[V:2] dg2f/e/ | 
[V:3] z4 | 
[V:4] D,C,>D,E,/F,/ | 
[V:1] B,2A,2 | 
[V:2] dg2^f | 
[V:3] z4 | 
[V:4] G,2D,2 | 
[V:1] zG2F/E/ | 
[V:2] gGBc | 
[V:3] z4 | 
[V:4] E,>D,B,,A,, | 
[V:1] DG2^F | 
[V:2] dc/B/A2 | 
[V:3] z4 | 
[V:4] B,,G,,D,2 | 
[V:1] Gd>cB/A/ | 
[V:2] G>A B/c/d | 
[V:3] z4 | 
[V:4] G,,2G,3/F,/ | 
[V:1] GABc | 
[V:2] efge | 
[V:3] z4 | 
[V:4] E,D,G,A, | 
[V:1] ABGA- | 
[V:2] f/e/d/c/Bc- | 
[V:3] z4 | 
[V:4] F,G,2F,- | 
[V:1] AG2F | 
[V:2] c/d/BA3/B/ | 
[V:3] z4 | 
[V:4] F,G,D,2 | 
[V:1] EFEF | 
[V:2] cdcd | 
[V:3] z4 | 
[V:4] zD,A,F, | 
[V:1] DG2^F | 
[V:2] BcA2 | 
[V:3] z4 | 
[V:4] G,E,D,2 | 
[V:1] G4 |]  
[V:2] G4 |]  
[V:3] G4 |]  
[V:4] G,,4 |]  


